X:3
T:Kenguru
C:Tuuli Kaihola
K:C
M:4/4
L:1/4
%%score {1 | 2}
V:1
!5!.G.F.E2 | .G.F.E2 | .D.Cx2 | .D.Cx2 |
   .G.F.E2 | .G.F.E2 | .D.Cx2 | .D.Cx2 |]
V:2 clef=bass
L:1/4
x4 | x4 | x2 E,2 | z2 E,2 |
x4 | x4 | x2 E,2 | x2 E,2 |]
%%text 22.10.2013

